X:1
T:The Children's Song
M:C
L:1/8
Q:80
C:
S:March
K:HP
[| {g}f3/2g/2{ag}af{g}e/2g3/2{a}f3/2e/2 | \
{g}dA{Gdc}de{g}f3A | \
{gBd}B3/2A/2{d}G{d}B{g}A/2d3/2{c}d2 |
{gde}d3/2B/2{g}cd{gef}e2-eA | \
{g}f3/2g/2{ag}af{g}e/2g3/2{a}f3/2e/2 | \
{g}dA{Gdc}de{g}f3A |
{gBd}B3/2A/2{d}G{d}B{g}A/2d3/2{c}d2 | \
{g}c3/2d/2{gef}ec{Gdc}d4|] [ | \
{g}A3/2B/2{G}A{Gdc}d{g}f2{gef}ed |
{g}f3/2g/2{a}fe{Gdc}d3A | \
{gf}g2{fg}fe{ag}a2{fg}fe | \
{g}d3/2B/2{g}cd{gef}e4| |
{g}A3/2B/2{G}A{Gdc}d{g}f2{gef}ed | \
{g}f3/2g/2{a}fe{Gdc}d3A | \
{gBd}B3/2A/2{d}G{d}B{g}A/2d3/2{c}d2 |
{g}c3/2d/2{gef}ec{Gdc}d4|]
